!!!COM: Wolfgang Amadeus Mozart
!!!OTL: Piano Sonata no. 7 in C major
!!!OMV: Allegro con spirito
**kern	**dynam
*I"Klavier linke Hand	*
*clefG2	*
*k[]	*
*M4/4	*
=1	=1
!LO:TX:a:B:t=Allegro con spirito	!
[16CLL 16c 16e 16g [16cc	f
16CJ_ 16cc_	.
16CL_ 16cc_	.
16CJJ_ 16cc_	.
16CLL_ 16cc_	.
16CJ_ 16cc_	.
16CL_ 16cc_	.
16CJJ] 16cc]	.
[16GGLL [16g	.
16GGJ_ 16g_	.
16GGL_ 16g_	.
16GGJJ_ 16g_	.
16GGLL_ 16g_	.
16GGJ_ 16g_	.
16GGL_ 16g_	.
16GGJJ] 16g]	.
=2	=2
[16ELL [16ee	.
16EJ_ 16ee_	.
16EL_ 16ee_	.
16EJJ_ 16ee_	.
16ELL_ 16ee_	.
16EJ] 16ee]	.
16FL 16ff	.
16DJJ 16dd	.
[16CLL [16cc	.
16CJ_ 16cc_	.
16CL_ 16cc_	.
16CJJ] 16cc]	.
4r	.
=3	=3
[16eLL [16gg	p
16eJ] 16gg_	.
[16gL 16gg_	.
16g`JJ] 16gg]	.
[16eLL [16gg	.
16eJ] 16gg_	.
[16gL 16gg_	.
16g`JJ] 16gg]	.
[16c#XLL	.
16c#J]	.
[16gL	.
16gJJ]	.
[16c#XLL [16aa	.
16c#J] 16aa_	.
[16gL 16aa_	.
16gJJ] 16aa]	.
!!linebreak:original
=4	=4
[16dLL [16ff 16gg	.
16dJ] 16ff_	.
[16gL 16ff_	.
16g`JJ] 16ff]	.
[16dLL [16ff	.
16dJ] 16ff_	.
[16gL 16ff_	.
16g`JJ] 16ff]	.
[16BLL	.
16BJ]	.
[16gL	.
16gJJ]	.
[16BLL [16gg	.
16BJ] 16gg_	.
[16gL 16gg_	.
16gJJ] 16gg]	.
!!linebreak:original
=5	=5
[16cLL [16ee 16ff	.
16cJ] 16ee_	.
[16gL 16ee_	.
16g`JJ] 16ee]	.
[16cLL [16ee	.
16cJ] 16ee_	.
[16gL 16ee_	.
16g`JJ] 16ee]	.
[16eLL	.
16eJ]	.
[16gL	.
16gJJ]	.
[16eLL [16gg	.
16eJ] 16gg]	.
[16gL [16ee	.
16gJJ] 16ee]	.
=6	=6
[16fLL [16a [16cc#X	.
16fJ_ 16a_ 16cc#]	.
16fL_ 16a_ [16dd	.
16fJJ_ 16a_ 16dd]	.
16fLL_ 16a_ [16ff	.
16fJ_ 16a_ 16ff]	.
16fL_ 16a_ [16ee	.
16fJJ_ 16a_ 16ee]	.
16fLL_ 16a_ [16cc#X	.
16fJ_ 16a_ 16cc#]	.
16fL_ 16a_ [16dd	.
16fJJ_ 16a_ 16dd]	.
16fLL_ 16a_ [16ff	.
16fJ_ 16a_ 16ff]	.
16fL_ 16a_ [16ee	.
16fJJ] 16a] 16ee]	.
=7	=7
[16cc#XLL	.
16cc#J]	.
[16ddL	.
16ddJJ]	.
[16FLL [16A [16d [16ff	.
16FJ_ 16A_ 16d_ 16ff]	.
16FL_ 16A_ 16d_ [16aa	.
16FJJ] 16A] 16d] 16aa]	.
[16GLL [16cn [16e [16gg	.
16GJ_ 16c_ 16e_ 16gg]	.
16GL_ 16c_ 16e_ [16ee	.
16GJJ] 16c] 16e] 16ee]	.
[16GLL [16B [16d [16ff	.
16GJ_ 16B_ 16d_ 16ff]	.
16GL_ 16B_ 16d_ [16dd	.
16GJJ] 16B] 16d] 16dd]	.
!!pagebreak:original
=8	=8
[16CCLL [16C 16c 16e 16g [16cc	f
16CCJ_ 16C_ 16cc_	.
16CCL_ 16C_ 16cc_	.
16CCJJ_ 16C_ 16cc_	.
16CCLL_ 16C_ 16cc_	.
16CCJ_ 16C_ 16cc_	.
16CCL_ 16C_ 16cc_	.
16CCJJ] 16C] 16cc]	.
[16GGLL [16g	.
16GGJ_ 16g_	.
16GGL_ 16g_	.
16GGJJ_ 16g_	.
16GGLL_ 16g_	.
16GGJ_ 16g_	.
16GGL_ 16g_	.
16GGJJ] 16g]	.
!!linebreak:original
=9	=9
[16ELL [16ee	.
16EJ_ 16ee_	.
16EL_ 16ee_	.
16EJJ_ 16ee_	.
16ELL_ 16ee_	.
16EJ] 16ee]	.
16FL 16ff	.
16DJJ 16dd	.
[16CLL [16cc	.
16CJ_ 16cc_	.
16CL_ 16cc_	.
16CJJ] 16cc]	.
4r	.
=10	=10
[16eLL [16gg	p
16eJ] 16gg_	.
[16gL 16gg_	.
16g`JJ] 16gg]	.
[16eLL [16gg	.
16eJ] 16gg_	.
[16gL 16gg_	.
16g`JJ] 16gg]	.
[16c#XLL	.
16c#J]	.
[16gL	.
16gJJ]	.
[16c#XLL [16aa	.
16c#J] 16aa_	.
[16gL 16aa_	.
16gJJ] 16aa]	.
=11	=11
[16dLL [16ff 16gg	.
16dJ] 16ff_	.
[16gL 16ff_	.
16g`JJ] 16ff]	.
[16dLL [16ff	.
16dJ] 16ff_	.
[16gL 16ff_	.
16g`JJ] 16ff]	.
[16BLL	.
16BJ]	.
[16gL [16ff#X	.
16gJJ] 16ff#]	.
[16BLL [16aa	.
16BJ] 16aa]	.
[16gL [16gg	.
16gJJ] 16gg]	.
!!linebreak:original
=12	=12
[16cLL [16ee 16ff	.
16cJ] 16ee_	.
[16gL 16ee_	.
16g`JJ] 16ee]	.
[16cLL [16ee	.
16cJ] 16ee_	.
[16gL 16ee_	.
16g`JJ] 16ee]	.
[16eLL	.
16eJ]	.
[16gL [16ee	.
16gJJ] 16ee]	.
[16eLL [16gg	.
16eJ] 16gg]	.
[16gL [16ee	.
16gJJ] 16ee]	.
!!linebreak:original
=13	=13
[16gLL [16b-X [16cc#X	.
16gJ_ 16b-_ 16cc#_	.
16gL_ 16b-_ 16cc#_	.
16gJJ_ 16b-_ 16cc#_	.
16gLL_ 16b-_ 16cc#_	.
16gJ_ 16b-_ 16cc#]	.
16gL_ 16b-_ 16dd	.
16gJJ] 16b-] 16ee	.
[16fLL [16a [16dd	.
16fJ_ 16a_ 16dd_	.
16fL_ 16a_ 16dd_	.
16fJJ] 16a] 16dd]	.
8r	.
[16ffLL	.
16ffJJ]	.
=14	=14
[16gLL [16b-X [16ee	.
16gJ_ 16b-_ 16ee_	.
16gL_ 16b-_ 16ee_	.
16gJJ_ 16b-_ 16ee_	.
16gLL_ 16b-_ 16ee_	.
16gJ_ 16b-_ 16ee]	.
16gL_ 16b-_ 16ff	.
16gJJ] 16b-] 16gg	.
[16aLL [16cc [16ff	.
16aJ_ 16cc_ 16ff_	.
16aL_ 16cc_ 16ff_	.
16aJJ] 16cc] 16ff]	.
4r	.
=15	=15
[16ALL [16cc [16ccc	f
16AJ] 16cc] 16ccc]	.
[16cL [16cc [16ccc	.
16cJJ] 16cc] 16ccc]	.
[16ALL [16cc [16ccc	.
16AJ] 16cc_ 16ccc_	.
[16cL 16cc_ 16ccc_	.
16cJJ] 16cc_ 16ccc_	.
[16FLL 16cc_ 16ccc_	.
16FJ] 16cc_ 16ccc_	.
[16cL 16cc_ 16ccc_	.
16cJJ] 16cc] 16ccc]	.
[16FLL [16bb	.
16FJ] 16bb]	.
[16cL [16aa	.
16cJJ] 16aa]	.
!!pagebreak:original
=16	=16
[16ELL [16cc [16gg	.
16EJ] 16cc] 16gg]	.
[16cL [16cc [16gg	.
16cJJ] 16cc] 16gg]	.
[16ELL [16cc [16gg	.
16EJ] 16cc_ 16gg_	.
[16cL 16cc_ 16gg_	.
16cJJ] 16cc_ 16gg_	.
[16CLL 16cc_ 16gg_	.
16CJ] 16cc_ 16gg_	.
[16cL 16cc_ 16gg_	.
16cJJ] 16cc] 16gg]	.
[16CLL [16ff	.
16CJ] 16ff]	.
[16cL [16ee	.
16cJJ] 16ee_	.
!!linebreak:original
=17	=17
[16FLL 16ee]	.
16FJ] 16dd	.
[16AL 16ff	.
16AJJ] 16ee	.
[16FLL [16ff 16gg	.
16FJ] 16ff]	.
[16dL 16ee	.
16dJJ] 16dd	.
[16GLL [16cc	.
16GJ] 16cc_	.
[16eL 16cc_	.
16eJJ] 16cc]	.
[16GTLL [16b	.
16GTJ] 16b_	.
[16dTL 16b_	.
16dTJJ] 16b]	.
=18	=18
[16ALL [16cc [16ccc	.
16AJ] 16cc] 16ccc]	.
[16cL [16cc [16ccc	.
16cJJ] 16cc] 16ccc]	.
[16ALL [16cc [16ccc	.
16AJ] 16cc_ 16ccc_	.
[16cL 16cc_ 16ccc_	.
16cJJ] 16cc_ 16ccc_	.
[16FLL 16cc_ 16ccc_	.
16FJ] 16cc] 16ccc]	.
[16cL 16ddd	.
16cJJ] 16ccc	.
[16FLL [16bb	.
16FJ] 16bb]	.
[16cL [16aa	.
16cJJ] 16aa]	.
=19	=19
[16ELL [16cc [16gg	.
16EJ] 16cc] 16gg]	.
[16cL [16cc [16gg	.
16cJJ] 16cc] 16gg]	.
[16ELL [16cc [16gg	.
16EJ] 16cc_ 16gg_	.
[16cL 16cc_ 16gg_	.
16cJJ] 16cc_ 16gg_	.
[16CLL 16cc_ 16gg_	.
16CJ] 16cc] 16gg]	.
[16cL 16aa	.
16cJJ] 16gg	.
[16CLL [16ff	.
16CJ] 16ff]	.
[16cL [16ee	.
16cJJ] 16ee_	.
!!linebreak:original
=20	=20
[16FLL 16ee]	.
16FJ] 16dd	.
[16cL 16aa	.
16cJJ] 16gg#X	.
[16FLL [16aa 16bb	.
16FJ] 16aa]	.
[16dL 16ggn	.
16dJJ] 16ff	.
[16GLL [16ee	.
16GJ] 16ee_	.
[16cL 16ee_	.
16cJJ] 16ee]	.
[16GTLL [16dd	.
16GTJ] 16dd_	.
[16BtL 16dd_	.
16BtJJ] 16dd]	.
=21	=21
[16cLL [16e [16cc	.
16cJ] 16e] 16cc_	.
[16cL [16e 16cc_	.
16cJJ] 16e] 16cc]	.
[16cLL [16e	.
16cJ] 16e]	.
[16cL [16e 16cc 16dd	.
16cJJ] 16e] 16b	.
[16cLL [16e [16cc	.
16c`J] 16e] 16cc]	.
[16cL [16e [16dd#X	.
16c`JJ] 16e] 16dd#]	.
[16cLL [16e [16ee	.
16c`J] 16e] 16ee]	.
[16cL [16e [16ff#X	.
16c`JJ] 16e] 16ff#]	.
=22	=22
[16cLL [16e [16gg	.
16c`J] 16e] 16gg]	.
[16cL [16e [16bb	.
16c`JJ] 16e] 16bb]	.
[16cLL [16e [16ccc	.
16c`J] 16e] 16ccc]	.
[16cL [16e [16ddd#X	.
16c`JJ] 16e] 16ddd#]	.
[16cLL [16e [16eee	.
16cJ] 16e] 16eee_	.
[16cL [16e 16eee_	.
16cJJ] 16e] 16eee]	.
[16cLL [16e	.
16cJ] 16e]	.
[16cL [16e	.
16cJJ] 16e]	.
!!linebreak:original
=23	=23
[16BLL [16d [16dd [16gg [16ddd	.
16BJ] 16d] 16dd_ 16gg_ 16ddd_	.
[16BL [16d 16dd_ 16gg_ 16ddd_	.
16BJJ] 16d] 16dd] 16gg] 16ddd]	.
[16BLL [16d	.
16BJ] 16d]	.
[16BL [16d 16b 16cc	.
16BJJ] 16d] 16a	.
[16BLL [16d [16b	.
16B`J] 16d] 16b]	.
[16BL [16d [16cc#X	.
16B`JJ] 16d] 16cc#]	.
[16BLL [16d [16dd	.
16B`J] 16d] 16dd]	.
[16BL [16d [16ff#X	.
16B`JJ] 16d] 16ff#]	.
=24	=24
[16BLL [16d [16gg	.
16B`J] 16d] 16gg]	.
[16BL [16d [16aa#X	.
16B`JJ] 16d] 16aa#]	.
[16BLL [16d [16bb	.
16B`J] 16d] 16bb]	.
[16BL [16d [16ccc#X	.
16B`JJ] 16d] 16ccc#]	.
[16BLL [16d [16ddd	.
16BJ] 16d] 16ddd_	.
[16BL [16d 16ddd_	.
16BJJ] 16d] 16ddd]	.
[16BLL [16d	.
16BJ] 16d]	.
[16BL [16d	.
16BJJ] 16d]	.
=25	=25
[16F#XLL [16A [16d [16cc [16ff#X [16aa [16ccc	.
16F#J] 16A] 16d] 16cc_ 16ff#_ 16aa_ 16ccc_	.
[16F#XL [16A [16d 16cc_ 16ff#_ 16aa_ 16ccc_	.
16F#JJ] 16A] 16d] 16cc] 16ff#] 16aa] 16ccc]	.
[16F#XLL [16A [16d	.
16F#J] 16A] 16d]	.
[16F#XL [16A [16d 16a 16b	.
16F#JJ] 16A] 16d] 16g#X	.
[16F#XLL [16A [16d [16a	.
16F#`J] 16A] 16d] 16a]	.
[16F#XL [16A [16d [16b	.
16F#`JJ] 16A] 16d] 16b]	.
[16F#XLL [16A [16d [16cc	.
16F#`J] 16A] 16d] 16cc]	.
[16F#XL [16A [16d [16ee#X	.
16F#`JJ] 16A] 16d] 16ee#]	.
!!pagebreak:original
=26	=26
[16F#XLL [16A [16d [16ff#X	.
16F#`J] 16A] 16d] 16ff#]	.
[16F#XL [16A [16d [16gg#X	.
16F#`JJ] 16A] 16d] 16gg#]	.
[16F#XLL [16A [16d [16aa	.
16F#`J] 16A] 16d] 16aa]	.
[16F#XL [16A [16d [16bb	.
16F#`JJ] 16A] 16d] 16bb]	.
[16F#XLL [16A [16d [16ccc	.
16F#J] 16A] 16d] 16ccc_	.
[16F#XL [16A [16d 16ccc_	.
16F#JJ] 16A] 16d] 16ccc]	.
[16F#XLL [16A [16d	.
16F#J] 16A] 16d]	.
[16F#XL [16A [16d	.
16F#JJ] 16A] 16d]	.
=27	=27
[16GLL [16bb 16ccc	.
16GJ] 16bb]	.
[16dL 16aa	.
16dJJ] 16gg	.
[16ALL [16ff 16gg	.
16AJ] 16ff]	.
[16dL 16ee	.
16dJJ] 16dd	.
[16F#XLL 16dd 16ff#X 16aa [16ccc	.
16F#J] 16ccc_	.
[16dL 16ccc_	.
16dJJ] 16ccc_	.
[16DLL 16ccc_	.
16DJ] 16ccc_	.
[16dL 16ccc_	.
16dJJ] 16ccc]	.
=28	=28
[16GLL [16bb 16ccc	.
16GJ] 16bb]	.
[16dL 16aa	.
16dJJ] 16gg	.
[16ALL [16ff 16gg	.
16AJ] 16ff]	.
[16dL 16ee	.
16dJJ] 16dd	.
[16F#XLL 16dd 16ff#X 16aa [16ccc	.
16F#J] 16ccc_	.
[16dL 16ccc_	.
16dJJ] 16ccc_	.
[16DLL 16ccc_	.
16DJ] 16ccc_	.
[16dL 16ccc_	.
16dJJ] 16ccc]	.
!!linebreak:original
=29	=29
[16GLL [16d 16bb	.
16GJ_ 16d_ 16aa	.
16GL_ 16d_ 16ccc	.
16GJJ] 16d] 16bb	.
[16dddLL	.
16dddJ]	.
[16ff#XL	.
16ff#JJ]	.
[16BLL [16d 16gg	.
16BJ_ 16d_ 16ff#X	.
16BL_ 16d_ 16aa	.
16BJJ] 16d] 16gg	.
[16bbLL	.
16bbJ]	.
[16dd#XL	.
16dd#JJ]	.
=30	=30
[16cLL [16e [16g 16ee	.
16cJ_ 16e_ 16g_ 16dd#X	.
16cL_ 16e_ 16g_ 16ff#X	.
16cJJ] 16e] 16g] 16ee	.
[16ggLL	.
16ggJ]	.
[16bL	.
16bJJ]	.
[16eLL [16g 16cc	.
16eJ_ 16g_ 16b	.
16eL_ 16g_ 16ddn	.
16eJJ] 16g] 16cc	.
[16eeLL	.
16eeJ]	.
[16g#XL	.
16g#JJ]	.
=31	=31
[16ALL [16a	.
16AJ_ 16a_	.
16AL] 16a]	.
16BJJ 16b	.
[16cLL [16cc	.
16cJ_ 16cc_	.
16cL] 16cc]	.
16BJJ 16b	.
[16ALL [16a	.
16AJ_ 16a_	.
16AL] 16a]	.
16GJJ 16g	.
[16F#XLL [16f#X	.
16F#J_ 16f#_	.
16F#L] 16f#]	.
16EJJ 16e	.
!!linebreak:original
=32	=32
[16DLL [16d	.
16DJ] 16d]	.
16F#XL 16f#X	.
16AJJ 16a	.
[16dLL [16dd	.
16dJ] 16dd]	.
[16dL [16dd	.
16dJJ] 16dd]	.
[16dLL [16dd	.
16dJ_ 16dd_	.
16dL_ 16dd_	.
16dJJ] 16dd]	.
4r	.
=33	=33
[16c#XLL	.
16c#J]	.
[16dL	.
16dJJ]	.
[16c#XLL	.
16c#J]	.
[16dL	.
16dJJ]	.
[16c#XLL	.
16c#J]	.
[16dL	.
16dJJ]	.
[16c#XLL	.
16c#J]	.
[16dL	.
16dJJ]	.
=34	=34
[16cLL	.
16cJ]	.
[16dL	.
16dJJ]	.
[16BLL	.
16BJ]	.
[16dL	.
16dJJ]	.
[16cLL	.
16cJ]	.
[16dL	.
16dJJ]	.
[16ALL	.
16AJ]	.
[16dL	.
16dJJ]	.
!!linebreak:original
=35	=35
[16GLL [16bb	p
16G`J] 16bb]	.
[16dL [16ccc	.
16d`JJ] 16ccc]	.
[16GLL [16ddd	.
16G`J] 16ddd]	.
[16dL [16bb	.
16d`JJ] 16bb]	.
[16BLL [16gg	.
16BJ] 16gg_	.
[16dL 16gg_	.
16dJJ] 16gg_	.
[16BLL 16gg_	.
16BJ] 16gg_	.
[16dL 16gg_	.
16dJJ] 16gg]	.
!!pagebreak:original
=36	=36
[16cLL [16aa	.
16c`J] 16aa]	.
[16dL [16bb	.
16d`JJ] 16bb]	.
[16cLL [16ccc	.
16c`J] 16ccc]	.
[16dL [16aa	.
16d`JJ] 16aa]	.
[16ALL [16ff#X	.
16AJ] 16ff#_	.
[16dL 16ff#_	.
16dJJ] 16ff#_	.
[16ALL 16ff#_	.
16AJ] 16ff#_	.
[16dL 16ff#_	.
16dJJ] 16ff#]	.
=37	=37
[16BLL 16gg	.
16BJ] [16ff#X	.
[16dL 16ff#]	.
16dJJ]	.
[16GLL 16ee	.
16GJ] [16dd	.
[16dL 16dd]	.
16dJJ]	.
[16ALL 16b	.
16AJ] [16cc	.
[16dL 16cc]	.
16dJJ]	.
[16F#XLL	.
16F#J]	.
[16dL	.
16dJJ]	.
=38	=38
[16GLL 16cc	.
16GJ] [16b	.
[16dL 16b]	.
16dJJ]	.
[16ELL 16a	.
16EJ] [16g	.
[16c#XL 16g]	.
16c#JJ]	.
[16DLL 16b	.
16DJ] [16a	.
[16dL 16a]	.
16dJJ]	.
[16cnLL	.
16cJ]	.
[16AL	.
16AJJ]	.
!!linebreak:original
=39	=39
[16GLL [16bb	.
16G`J] 16bb]	.
[16dL [16ccc	.
16d`JJ] 16ccc]	.
[16GLL [16ddd	.
16G`J] 16ddd]	.
[16dL [16bb	.
16d`JJ] 16bb]	.
[16BLL [16gg	.
16BJ] 16gg_	.
[16dL 16gg_	.
16dJJ] 16gg_	.
[16BLL 16gg_	.
16BJ] 16gg_	.
[16dL 16gg_	.
16dJJ] 16gg]	.
=40	=40
[16cLL [16aa	.
16c`J] 16aa]	.
[16dL [16bb	.
16d`JJ] 16bb]	.
[16cLL [16ccc	.
16c`J] 16ccc]	.
[16dL [16aa	.
16d`JJ] 16aa]	.
[16ALL [16ff#X	.
16AJ] 16ff#_	.
[16dL 16ff#_	.
16dJJ] 16ff#_	.
[16ALL 16ff#_	.
16AJ] 16ff#_	.
[16dL 16ff#_	.
16dJJ] 16ff#]	.
=41	=41
[16BLL 16gg	.
16BJ] [16ff#X	.
[16dL 16ff#_	.
16dJJ] 16ff#]	.
[16GLL 16ee	.
16GJ] [16dd	.
[16dL 16dd_	.
16dJJ] 16dd]	.
[16ALL 16b	.
16AJ] [16cc	.
[16dL 16cc_	.
16dJJ] 16cc]	.
[16F#XLL	.
16F#J]	.
[16dL	.
16dJJ]	.
!!linebreak:original
=42	=42
[16GLL 16cc	.
16GJ] [16b	.
[16dL 16b_	.
16dJJ] 16b]	.
[16ELL 16a	.
16EJ] [16g	.
[16c#XL 16g_	.
16c#JJ] 16g]	.
[16DLL 16ee	.
16DJ] [16dd	.
[16dL 16dd_	.
16d`JJ] 16dd]	.
[16CnLL	.
16C`J]	.
[16cnL	.
16c`JJ]	.
=43	=43
16BB`LL [16dd [16ddd	f
16GJ 16dd_ 16ddd_	.
16F#XL 16dd_ 16ddd_	.
16GJJ 16dd_ 16ddd_	.
16ALL 16dd_ 16ddd_	.
16GJ 16dd_ 16ddd_	.
16F#XL 16dd_ 16ddd_	.
16GJJ 16dd] 16ddd]	.
[16BBLL [16ccc	.
16BB`J_ 16ccc]	.
16BBL_ [16bb	.
16BB`JJ] 16bb]	.
[16aaLL	.
16aa`J]	.
[16ggL	.
16gg`JJ]	.
=44	=44
16CLL [16ee [16eee	.
16GJ 16ee_ 16eee_	.
16F#XL 16ee_ 16eee_	.
16GJJ 16ee_ 16eee_	.
16ALL 16ee_ 16eee_	.
16GJ 16ee_ 16eee_	.
16F#XL 16ee_ 16eee_	.
16GJJ 16ee] 16eee]	.
[16CLL [16ddd	.
16C`J_ 16ddd]	.
16CL_ [16ccc	.
16C`JJ] 16ccc]	.
[16bbLL	.
16bb`J]	.
[16aaL	.
16aa`JJ]	.
!!linebreak:original
=45	=45
[16DLL 16bb	.
16DJ] 16ccc	.
[16GL 16ddd	.
16GJJ] 16bb	.
[16BLL [16gg	.
16BJ] 16gg]	.
[16GL	.
16GJJ]	.
[16DLL 16aa	.
16DJ] 16bb	.
[16AL 16ccc	.
16AJJ] 16aa	.
[16cLL [16ff#X	.
16cJ] 16ff#]	.
[16AL	.
16AJJ]	.
=46	=46
16BBLL [16dd [16ddd	.
16GJ 16dd_ 16ddd_	.
16F#XL 16dd_ 16ddd_	.
16GJJ 16dd_ 16ddd_	.
16ALL 16dd_ 16ddd_	.
16GJ 16dd_ 16ddd_	.
16F#XL 16dd_ 16ddd_	.
16GJJ 16dd] 16ddd]	.
[16BBLL 16ccc	.
16BBJ_ 16ddd	.
16BBL_ 16ccc	.
16BBJJ] 16bb	.
16aaLL	.
16bbJ	.
16aaL	.
16ggJJ	.
!!pagebreak:original
=47	=47
16CLL [16ee [16eee	.
16GJ 16ee_ 16eee_	.
16F#XL 16ee_ 16eee_	.
16GJJ 16ee_ 16eee_	.
16ALL 16ee_ 16eee_	.
16GJ 16ee_ 16eee_	.
16F#XL 16ee_ 16eee_	.
16GJJ 16ee] 16eee]	.
[16CLL 16ddd	.
16CJ_ 16eee	.
16CL_ 16ddd	.
16CJJ] 16ccc	.
16bbLL	.
16cccJ	.
16bbL	.
16aaJJ	.
=48	=48
[16dLL [16bb	p
16dJ] 16bb]	.
[16gL [16gg	.
16gJJ] 16gg]	.
[16eLL [16ccc	f
16eJ] 16ccc_	.
[16gL 16ccc_	.
16gJJ] 16ccc]	.
[16dLL [16bb	p
16dJ] 16bb]	.
[16gL [16gg	.
16gJJ] 16gg]	.
[16cLL [16eee	f
16cJ] 16eee_	.
[16gL 16eee_	.
16gJJ] 16eee]	.
=49	=49
[16BLL [16ddd	p
16BJ] 16ddd]	.
[16gL [16gg	.
16gJJ] 16gg]	.
[16eLL [16ccc	f
16eJ] 16ccc_	.
[16gL 16ccc_	.
16gJJ] 16ccc]	.
[16dLL [16bb	p
16dJ] 16bb]	.
[16gL [16gg	.
16gJJ] 16gg]	.
[16cLL [16eee	f
16cJ] 16eee_	.
[16gL 16eee_	.
16gJJ] 16eee]	.
!!linebreak:original
=50	=50
[16BLL [16d [16g#X [16ff [16fff	f
16BJ] 16d] 16g#] 16ff_ 16fff_	.
[16BL [16d [16g#X 16ff_ 16fff_	.
16BJJ] 16d] 16g#] 16ff_ 16fff_	.
[16BLL [16d [16g#X 16ff_ 16fff_	.
16BJ] 16d] 16g#] 16ff_ 16fff_	.
[16BL [16d [16g#X 16ff_ 16fff_	.
16BJJ] 16d] 16g#] 16ff] 16fff]	.
[16BLL [16d [16g#X [16ff [16fff	.
16BJ] 16d] 16g#] 16ff_ 16fff_	.
[16BL [16d [16g#X 16ff_ 16fff_	.
16BJJ] 16d] 16g#] 16ff] 16fff]	.
[16BLL [16d [16g#X [16ff [16fff	.
16BJ] 16d] 16g#] 16ff_ 16fff_	.
[16BL [16d [16g#X 16ff_ 16fff_	.
16BJJ] 16d] 16g#] 16ff] 16fff]	.
=51	=51
[16cLL [16e [16a [16ee [16eee	.
16cJ_ 16e_ 16a_ 16ee] 16eee]	.
16cL_ 16e_ 16a_ [16ddd	.
16c`JJ] 16e] 16a] 16ddd]	.
[16cccTLL	.
16cccTJ]	.
[16bbL	.
16bbJJ]	.
[16aaTLL	.
16aaTJ]	.
[16ggL	.
16ggJJ]	.
[16ff#XtLL	.
16ff#tJ]	.
[16eeL	.
16eeJJ]	.
=52	=52
16DLL [16dd	.
16BJ 16dd]	.
16GL 16ee	.
16BJJ 16ff#X	.
16DLL 16gg	.
16BJ 16aa	.
16GL 16bb	.
16BJJ 16ccc	.
16DLL 16ddd	.
16BJ 16ccc	.
16GL 16bb	.
16BJJ 16ccc	.
16DLL 16ddd	.
16BJ 16bb	.
16GL 16aa	.
16BJJ 16gg	.
!!linebreak:original
=53	=53
16DTLL [16aa	.
16cTJ 16aa_	.
16F#XtL 16aa_	.
16cTJJ 16aa_	.
16DTLL 16aa_	.
16cTJ 16aa_	.
16F#XtL 16aa_	.
16cTJJ 16aa_	.
16DTLL 16aa_	.
16cTJ 16aa_	.
16F#XtL 16aa_	.
16cTJJ 16aa_	.
16DTLL 16aa_	.
16cTJ 16aa_	.
16F#XtL 16aa_	.
16cTJJ 16aa]	.
=54	=54
[16GLL [16B [16gg	.
16GJ_ 16B_ 16gg_	.
16GL_ 16B_ 16gg_	.
16GJJ] 16B] 16gg]	.
[16gLL	.
16gJ_	.
16gL_ [16b	p
16g`JJ] 16b]	.
[16aLL [16dd	.
16aJ_ 16dd]	.
16aL_ [16cc	.
16a`JJ] 16cc]	.
[16f#XLL	.
16f#J_	.
16f#L_ [16a	.
16f#`JJ] 16a]	.
=55	=55
[16gLL [16cc	.
16gJ_ 16cc]	.
16gL_ [16b	.
16g`JJ] 16b]	.
[16eLL	.
16eJ_	.
16eL_ [16g	.
16e`JJ] 16g]	.
[16cLL [16b	.
16cJ_ 16b]	.
16cL_ [16a	.
16c`JJ] 16a]	.
[16dLL	.
16dJ_	.
16dL_ [16f#X	.
16d`JJ] 16f#]	.
!!linebreak:original
=56	=56
[16BLL [16a	.
16BJ_ 16a]	.
16BL_ [16g	.
16BJJ] 16g]	.
[16GGLL [16G 16b	f
16GGJ_ 16G_ 16cc	.
16GGL_ 16G_ 16dd	.
16GGJJ] 16G] 16b	.
[16AALL [16A 16cc	.
16AAJ_ 16A_ 16dd	.
16AAL_ 16A_ 16ee	.
16AAJJ] 16A] 16cc	.
[16FF#XLL [16F#X 16aa	.
16FF#J_ 16F#_ 16bb	.
16FF#L_ 16F#_ 16ccc	.
16FF#JJ] 16F#] 16aa	.
=57	=57
[16GGLL [16G 16bb	.
16GGJ_ 16G_ 16ccc	.
16GGL_ 16G_ 16ddd	.
16GGJJ] 16G] 16bb	.
[16EELL [16E 16g	.
16EEJ_ 16E_ 16a	.
16EEL_ 16E_ 16b	.
16EEJJ] 16E] 16g	.
[16CCLL [16C 16a	.
16CCJ_ 16C_ 16b	.
16CCL_ 16C_ 16cc	.
16CCJJ] 16C] 16a	.
[16DDLL [16D 16ff#X	.
16DDJ_ 16D_ 16gg	.
16DDL_ 16D_ 16aa	.
16DDJJ] 16D] 16ff#X	.
=58	=58
[16GGLL [16gg	.
16GGJ_ 16gg_	.
16GGL_ 16gg_	.
16GGJJ] 16gg]	.
[16GGLL [16G [16dd [16gg [16bb	.
16GGJ_ 16G_ 16dd_ 16gg_ 16bb_	.
16GGL_ 16G_ 16dd_ 16gg_ 16bb_	.
16GGJJ] 16G] 16dd] 16gg] 16bb]	.
[16GGLL [16G [16b [16dd [16gg	.
16GGJ_ 16G_ 16b_ 16dd_ 16gg_	.
16GGL_ 16G_ 16b_ 16dd_ 16gg_	.
16GGJJ] 16G] 16b] 16dd] 16gg]	.
4r	.
!!pagebreak:original
=59!|:	=59!|:
[16GGGLL [16GG 16G 16B-X 16d [16g	f
16GGGJ_ 16GG_ 16g_	.
16GGGL_ 16GG_ 16g_	.
16GGGJJ_ 16GG_ 16g_	.
16GGGLL_ 16GG_ 16g_	.
16GGGJ_ 16GG_ 16g_	.
16GGGL_ 16GG_ 16g_	.
16GGGJJ] 16GG] 16g]	.
[16DDLL [16d	.
16DDJ_ 16d_	.
16DDL_ 16d_	.
16DDJJ_ 16d_	.
16DDLL_ 16d_	.
16DDJ_ 16d_	.
16DDL_ 16d_	.
16DDJJ] 16d]	.
=60	=60
[16BB-XLL [16b-X	.
16BB-J_ 16b-_	.
16BB-L_ 16b-_	.
16BB-JJ_ 16b-_	.
16BB-LL_ 16b-_	.
16BB-J] 16b-]	.
16CL 16cc	.
16AAJJ 16a	.
[16GGLL [16g	.
16GGJ_ 16g_	.
16GGL_ 16g_	.
16GGJJ] 16g]	.
4r	.
=61	=61
[16b-XLL [16dd	p
16b-J_ 16dd_	.
16b-L_ 16dd_	.
16b-JJ_ 16dd_	.
16b-LL_ 16dd_	.
16b-J] 16dd]	.
16ccL 16ee-X	.
16aJJ 16cc	.
[16gLL [16b-X	.
16gJ_ 16b-_	.
16gL_ 16b-_	.
16gJJ] 16b-]	.
4r	.
!!linebreak:original
=62	=62
[16ddLL [16bb-X	pp
16ddJ_ 16bb-_	.
16ddL_ 16bb-_	.
16ddJJ_ 16bb-_	.
16ddLL_ 16bb-_	.
16ddJ] 16bb-]	.
16ee-XL 16ccc	.
16ccJJ 16aa	.
[16b-XLL [16gg	.
16b-J_ 16gg_	.
16b-L_ 16gg_	.
16b-JJ] 16gg]	.
4r	.
!!linebreak:original
=63	=63
[16B-XLL [16d	.
16B-J] 16d]	.
[16gL	.
16gJJ]	.
[16B-XLL [16d [16gg	p
16B-J] 16d] 16gg_	.
[16gL 16gg_	.
16gJJ] 16gg]	.
[16B-XLL [16d [16ddd	.
16B-J] 16d] 16ddd_	.
[16gL 16ddd_	.
16gJJ] 16ddd]	.
[16B-XLL [16d [16eee	.
16B-J] 16d] 16eee_	.
[16gL 16eee_	.
16gJJ] 16eee]	.
=64	=64
[16ALL [16e [16ddd	.
16AJ] 16e] 16ddd_	.
[16gL 16ddd_	.
16gJJ] 16ddd_	.
[16ALL [16e 16ddd_	.
16AJ] 16e] 16ddd_	.
[16gL 16ddd_	.
16gJJ] 16ddd]	.
[16ALL [16e [16ccc#X	.
16AJ] 16e] 16ccc#_	.
[16gL 16ccc#_	.
16gJJ] 16ccc#]	.
[16ALL [16e	.
16AJ] 16e]	.
[16gL	.
16gJJ]	.
=65	=65
[16B-XLL [16d	.
16B-J] 16d]	.
[16gL	.
16gJJ] 16gg	.
[16B-XTLL [16d [16gg	.
16B-TJ] 16d] 16gg_	.
[16gTL 16gg]	.
32gL_ 32ff#X	.
32gJJJ] 32gg	.
[16B-XLL [16d [16ddd	.
16B-J] 16d] 16ddd_	.
[16gL 16ddd_	.
16gJJ] 16ddd]	.
[16B-XLL [16d [16eee	.
16B-J] 16d] 16eee_	.
[16gL 16eee_	.
16gJJ] 16eee]	.
!!linebreak:original
=66	=66
[16ALL [16e [16ddd	.
16AJ] 16e] 16ddd_	.
[16gL 16ddd_	.
16gJJ] 16ddd_	.
[16ALL [16e 16ddd_	.
16AJ] 16e] 16ddd_	.
[16gL 16ddd_	.
16gJJ] 16ddd]	.
[16ALL [16e [16ccc#X	.
16AJ] 16e] 16ccc#_	.
[16gL 16ccc#_	.
16gJJ] 16ccc#]	.
[16ALL [16e	.
16AJ] 16e]	.
[16gL	.
16gJJ]	.
*clefF4	*
=67	=67
[16DDLL [16D 16F 16A [16d	f
16DDJ_ 16D_ 16d_	.
16DDL_ 16D_ 16d_	.
16DDJJ_ 16D_ 16d_	.
16DDLL_ 16D_ 16d_	.
16DDJ_ 16D_ 16d_	.
16DDL_ 16D_ 16d_	.
16DDJJ] 16D] 16d]	.
[16AALL [16A	.
16AAJ_ 16A_	.
16AAL_ 16A_	.
16AAJJ_ 16A_	.
16AALL_ 16A_	.
16AAJ_ 16A_	.
16AAL_ 16A_	.
16AAJJ] 16A]	.
*clefG2	*
=68	=68
[16FLL [16f	.
16FJ_ 16f_	.
16FL_ 16f_	.
16FJJ_ 16f_	.
16FLL_ 16f_	.
16FJ] 16f]	.
16GL 16g	.
16EJJ 16e	.
[16DLL [16d	.
16DJ_ 16d_	.
16DL_ 16d_	.
16DJJ] 16d]	.
4r	.
!!pagebreak:original
=69	=69
[16FLL [16A	.
16FJ_ 16A]	.
16FL_ [16d	.
16FJJ] 16d] 16dd	p
[16FTLL [16A [16dd	.
16FTJ_ 16A] 16dd_	.
16FTL_ [16d 16dd]	.
32FL_ 32d_ 32cc#X	.
32FJJJ] 32d] 32dd	.
[16FLL [16A [16aa	.
16FJ_ 16A] 16aa_	.
16FL_ [16d 16aa_	.
16FJJ] 16d] 16aa]	.
[16FLL [16A [16bb	.
16FJ_ 16A] 16bb_	.
16FL_ [16d 16bb_	.
16FJJ] 16d] 16bb]	.
!!linebreak:original
=70	=70
[16ELL [16B [16aa	.
16EJ_ 16B] 16aa_	.
16EL_ [16d 16aa_	.
16EJJ] 16d] 16aa_	.
[16ELL [16B 16aa_	.
16EJ_ 16B] 16aa_	.
16EL_ [16d 16aa_	.
16EJJ] 16d] 16aa]	.
[16ELL [16B [16gg#X	.
16EJ_ 16B] 16gg#_	.
16EL_ [16d 16gg#_	.
16EJJ] 16d] 16gg#]	.
[16ELL [16B	.
16EJ_ 16B]	.
16EL_ [16d	.
16EJJ] 16d]	.
=71	=71
[16FLL [16A	.
16FJ_ 16A]	.
16FL_ [16d [16aa	.
16FJJ] 16d] 16aa]	.
[16FLL [16A [16ddd	.
16FJ_ 16A] 16ddd]	.
16FL_ [16d [16ccc#X	.
16FJJ] 16d] 16ccc#]	.
[16FLL [16A [16eee	.
16FJ_ 16A] 16eee]	.
16FL_ [16d [16ddd	.
16FJJ] 16d] 16ddd]	.
[16FLL [16A [16cccn	.
16FJ_ 16A] 16ccc]	.
16FL_ [16d [16bb	.
16FJJ] 16d] 16bb]	.
=72	=72
[16ELL [16B [16aa	.
16EJ_ 16B] 16aa_	.
16EL_ [16d 16aa_	.
16EJJ] 16d] 16aa_	.
[16ELL [16B 16aa_	.
16EJ_ 16B] 16aa_	.
16EL_ [16d 16aa_	.
16EJJ] 16d] 16aa]	.
[16ELL [16B [16gg#X 16aa 16bb	.
16EJ_ 16B] 16gg#_	.
16EL_ [16d 16gg#_	.
16EJJ] 16d] 16gg#]	.
[16ELL [16B	.
16EJ_ 16B]	.
16EL_ [16d	.
16EJJ] 16d]	.
!!linebreak:original
=73	=73
16ALL [16cc [16ccc	f
16eJ 16cc_ 16ccc_	.
16cL 16cc_ 16ccc_	.
16eJJ 16cc_ 16ccc_	.
16ALL 16cc_ 16ccc_	.
16eJ 16cc_ 16ccc_	.
16cL 16cc_ 16ccc_	.
16eJJ 16cc] 16ccc]	.
16ALL [16a [16aa	.
16fJ 16a_ 16aa_	.
16cL 16a_ 16aa_	.
16fJJ 16a_ 16aa_	.
16ALL 16a_ 16aa_	.
16fJ 16a_ 16aa_	.
16cL 16a_ 16aa_	.
16fJJ 16a] 16aa]	.
=74	=74
16ALL [16ddd#X	.
16f#XJ 16ddd#_	.
16cL 16ddd#_	.
16f#XJJ 16ddd#_	.
16ALL 16ddd#_	.
16f#XJ 16ddd#]	.
16cL 16eee	.
16f#XJJ 16ddd#X	.
16G#XLL [16eee	.
16eJ 16eee_	.
16BL 16eee_	.
16eJJ 16eee]	.
16G#XLL	.
16eJ	.
16BL	.
16eJJ	.
=75	=75
16GLL [16b-X [16bb-X	.
16dJ 16b-_ 16bb-_	.
16B-XL 16b-_ 16bb-_	.
16dJJ 16b-_ 16bb-_	.
16GLL 16b-_ 16bb-_	.
16dJ 16b-_ 16bb-_	.
16B-XL 16b-_ 16bb-_	.
16dJJ 16b-] 16bb-]	.
16GLL [16g [16gg	.
16e-XJ 16g_ 16gg_	.
16B-XL 16g_ 16gg_	.
16e-XJJ 16g_ 16gg_	.
16GLL 16g_ 16gg_	.
16e-XJ 16g_ 16gg_	.
16B-XL 16g_ 16gg_	.
16e-XJJ 16g] 16gg]	.
!!linebreak:original
=76	=76
16GLL [16ccc#X	.
16eJ 16ccc#_	.
16B-XL 16ccc#_	.
16eJJ 16ccc#_	.
16GLL 16ccc#_	.
16eJ 16ccc#]	.
16B-XL 16ddd	.
16eJJ 16ccc#X	.
16F#XLL [16ddd	.
16dJ 16ddd_	.
16AL 16ddd_	.
16dJJ 16ddd]	.
16F#XLL	.
16dJ	.
16AL	.
16dJJ	.
=77	=77
16FLL [16bb	.
16dJ 16bb_	.
16A-XL 16bb_	.
16dJJ 16bb_	.
16FLL 16bb_	.
16dJ 16bb]	.
16A-XL 16ccc	.
16dJJ 16bb	.
16ELL [16ccc	.
16cJ 16ccc_	.
16GL 16ccc_	.
16cJJ 16ccc]	.
16ELL	.
16cJ	.
16GL	.
16cJJ	.
=78	=78
16DLL [16gg#X	.
16BJ 16gg#_	.
16FL 16gg#_	.
16BJJ 16gg#_	.
16DLL 16gg#_	.
16BJ 16gg#]	.
16FL 16aa	.
16BJJ 16gg#X	.
16CLL [16aa	.
16AJ 16aa_	.
16EL 16aa_	.
16AJJ 16aa]	.
16CLL	.
16AJ	.
16EL	.
16AJJ	.
!!pagebreak:original
=79	=79
[16DD#XLL [16D#X	.
16DD#J_ 16D#_	.
16DD#L_ 16D#_ [16aa	.
16DD#`JJ] 16D#] 16aa]	.
[16cccLL	.
16ccc`J]	.
[16ff#XL	.
16ff#`JJ]	.
[16aaLL	.
16aa`J]	.
[16dd#XL	.
16dd#`JJ]	.
[16ff#XLL	.
16ff#`J]	.
[16ccL	.
16cc`JJ]	.
=80	=80
[16dd#XLL	.
16dd#`J]	.
[16AL [16a	.
16A`JJ] 16a]	.
[16cLL [16cc	.
16c`J] 16cc]	.
[16F#XL [16f#X	.
16F#`JJ] 16f#]	.
[16ALL [16a	.
16A`J] 16a]	.
[16D#XL [16d#X	.
16D#`JJ] 16d#]	.
[16F#XLL [16f#X	.
16F#`J] 16f#]	.
[16AAL [16A	.
16AA`JJ] 16A]	.
*clefF4	*
=81	=81
[16CLL [16c	.
16C`J] 16c]	.
[16FF#XL [16F#X	.
16FF#`JJ] 16F#]	.
[16AALL [16A	.
16AA`J] 16A]	.
[16DD#XL [16D#X	.
16DD#`JJ] 16D#]	.
[16EELL [16E	.
16EEJ_ 16E_	.
16EEL_ 16E_	.
16EEJJ] 16E]	.
*clefG2	*
[16EELL [16E [16b [16ddn [16ee [16gg#X	.
16EEJ_ 16E_ 16b_ 16dd_ 16ee_ 16gg#_	.
16EEL_ 16E_ 16b_ 16dd_ 16ee_ 16gg#_	.
16EEJJ] 16E] 16b] 16dd] 16ee] 16gg#]	.
!!linebreak:original
=82	=82
[16AALL [16A [16cc [16ee [16aa	.
16AAJ_ 16A_ 16cc_ 16ee_ 16aa_	.
16AAL_ 16A_ 16cc_ 16ee_ 16aa_	.
16AAJJ] 16A] 16cc] 16ee] 16aa]	.
[16aLL	.
16aJ_	.
16aL_ [16cc	p
16a`JJ] 16cc]	.
[16bLL [16ee	.
16bJ_ 16ee]	.
16bL_ [16dd	.
16b`JJ] 16dd]	.
[16g#XLL	.
16g#J_	.
16g#L_ [16b	.
16g#`JJ] 16b]	.
=83	=83
[16aLL [16dd	.
16aJ_ 16dd]	.
16aL_ [16cc	.
16a`JJ] 16cc]	.
[16fLL	.
16fJ_	.
16fL_ [16a	.
16f`JJ] 16a]	.
[16dLL [16cc	.
16dJ_ 16cc]	.
16dL_ [16b	.
16d`JJ] 16b]	.
[16eLL	.
16eJ_	.
16eL_ [16g#X	.
16e`JJ] 16g#]	.
=84	=84
[16cLL [16b	.
16cJ_ 16b]	.
16cL_ [16a	.
16c`JJ] 16a]	.
[16AALL [16A 16cc	f
16AAJ_ 16A_ 16dd	.
16AAL_ 16A_ 16ee	.
16AAJJ] 16A] 16cc	.
[16BBLL [16B 16dd	.
16BBJ_ 16B_ 16ee	.
16BBL_ 16B_ 16ff	.
16BBJJ] 16B] 16dd	.
[16GG#XLL [16G#X 16b	.
16GG#J_ 16G#_ 16cc	.
16GG#L_ 16G#_ 16dd	.
16GG#JJ] 16G#] 16b	.
!!linebreak:original
=85	=85
[16AALL [16A 16cc	.
16AAJ_ 16A_ 16dd	.
16AAL_ 16A_ 16ee	.
16AAJJ] 16A] 16cc	.
[16FFLL [16F 16a	.
16FFJ_ 16F_ 16b	.
16FFL_ 16F_ 16cc	.
16FFJJ] 16F] 16a	.
[16DDLL [16D 16b	.
16DDJ_ 16D_ 16cc	.
16DDL_ 16D_ 16dd	.
16DDJJ] 16D] 16b	.
[16EELL [16E 16g#X	.
16EEJ_ 16E_ 16a	.
16EEL_ 16E_ 16b	.
16EEJJ] 16E] 16g#X	.
=86	=86
[16AAALL [16AA 16A 16c 16e [16a	.
16AAAJ_ 16AA_ 16a_	.
16AAAL_ 16AA_ 16a_	.
16AAAJJ_ 16AA_ 16a_	.
16AAALL_ 16AA_ 16a_	.
16AAAJ_ 16AA_ 16a_	.
16AAAL_ 16AA_ 16a_	.
16AAAJJ] 16AA] 16a]	.
[16EELL [16e	.
16EEJ_ 16e_	.
16EEL_ 16e_	.
16EEJJ_ 16e_	.
16EELL_ 16e_	.
16EEJ_ 16e_	.
16EEL_ 16e_	.
16EEJJ] 16e]	.
=87	=87
[16CLL [16cc	.
16CJ_ 16cc_	.
16CL_ 16cc_	.
16CJJ_ 16cc_	.
16CLL_ 16cc_	.
16CJ] 16cc]	.
16DL 16dd	.
16BBJJ 16b	.
[16AALL [16a	.
16AAJ_ 16a_	.
16AAL_ 16a_	.
16AAJJ] 16a]	.
4r	.
!!linebreak:original
=88	=88
[16ccLL [16ee	p
16ccJ_ 16ee_	.
16ccL_ 16ee_	.
16ccJJ_ 16ee_	.
16ccLL_ 16ee_	.
16ccJ] 16ee]	.
16ddL 16ff	.
16bJJ 16dd	.
[16aLL [16cc	.
16aJ_ 16cc_	.
16aL_ 16cc_	.
16aJJ] 16cc]	.
4r	.
!!pagebreak:original
=89	=89
[16eeLL [16ccc	pp
16eeJ_ 16ccc_	.
16eeL_ 16ccc_	.
16eeJJ_ 16ccc_	.
16eeLL_ 16ccc_	.
16eeJ] 16ccc]	.
16ffL 16ddd	.
16ddJJ 16bb	.
[16ccLL [16aa	.
16ccJ_ 16aa_	.
16ccL_ 16aa_	.
16ccJJ] 16aa]	.
4r	.
=90	=90
[16BBBLL [16BB 16B 16d 16g [16b	f
16BBBJ_ 16BB_ 16b_	.
16BBBL_ 16BB_ 16b_	.
16BBBJJ_ 16BB_ 16b_	.
16BBBLL_ 16BB_ 16b_	.
16BBBJ_ 16BB_ 16b_	.
16BBBL_ 16BB_ 16b_	.
16BBBJJ] 16BB] 16b]	.
[16GGGLL [16GG [16g	.
16GGGJ_ 16GG_ 16g_	.
16GGGL_ 16GG_ 16g_	.
16GGGJJ_ 16GG_ 16g_	.
16GGGLL_ 16GG_ 16g_	.
16GGGJ_ 16GG_ 16g_	.
16GGGL_ 16GG_ 16g_	.
16GGGJJ] 16GG] 16g]	.
=91	=91
[16DLL [16dd	.
16DJ_ 16dd_	.
16DL_ 16dd_	.
16DJJ_ 16dd_	.
16DLL_ 16dd_	.
16DJ] 16dd]	.
16EL 16ee	.
16CJJ 16cc	.
[16BBLL [16b	.
16BBJ_ 16b_	.
16BBL_ 16b_	.
16BBJJ] 16b]	.
4r	.
!!linebreak:original
=92	=92
[16ddLL [16ff	p
16ddJ_ 16ff_	.
16ddL_ 16ff_	.
16ddJJ_ 16ff_	.
16ddLL_ 16ff_	.
16ddJ] 16ff]	.
16eeL 16gg	.
16ccJJ 16ee	.
[16bLL [16dd	.
16bJ_ 16dd_	.
16bL_ 16dd_	.
16bJJ] 16dd]	.
4r	.
=93	=93
[16ffLL [16ddd	pp
16ffJ_ 16ddd_	.
16ffL_ 16ddd_	.
16ffJJ_ 16ddd_	.
16ffLL_ 16ddd_	.
16ffJ] 16ddd]	.
16ggL 16eee	.
16eeJJ 16ccc	.
[16ddLL [16bb	.
16ddJ_ 16bb_	.
16ddL_ 16bb_	.
16ddJJ] 16bb]	.
4r	.
!!linebreak:original
=94	=94
[16CCLL [16C 16c 16e 16g [16cc	f
16CCJ_ 16C_ 16cc_	.
16CCL_ 16C_ 16cc_	.
16CCJJ_ 16C_ 16cc_	.
16CCLL_ 16C_ 16cc_	.
16CCJ_ 16C_ 16cc_	.
16CCL_ 16C_ 16cc_	.
16CCJJ] 16C] 16cc]	.
[16GGLL [16g	.
16GGJ_ 16g_	.
16GGL_ 16g_	.
16GGJJ_ 16g_	.
16GGLL_ 16g_	.
16GGJ_ 16g_	.
16GGL_ 16g_	.
16GGJJ] 16g]	.
=95	=95
[16ELL [16ee	.
16EJ_ 16ee_	.
16EL_ 16ee_	.
16EJJ_ 16ee_	.
16ELL_ 16ee_	.
16EJ] 16ee]	.
16FL 16ff	.
16DJJ 16dd	.
[16CLL [16cc	.
16CJ_ 16cc_	.
16CL_ 16cc_	.
16CJJ] 16cc]	.
4r	.
=96	=96
[16eLL [16gg	p
16eJ] 16gg_	.
[16gL 16gg_	.
16g`JJ] 16gg]	.
[16eLL [16gg	.
16eJ] 16gg_	.
[16gL 16gg_	.
16g`JJ] 16gg]	.
[16c#XLL	.
16c#J]	.
[16gL	.
16gJJ]	.
[16c#XLL [16aa	.
16c#J] 16aa_	.
[16gL 16aa_	.
16gJJ] 16aa]	.
!!linebreak:original
=97	=97
[16dLL [16ff 16gg	.
16dJ] 16ff_	.
[16gL 16ff_	.
16g`JJ] 16ff]	.
[16dLL [16ff	.
16dJ] 16ff_	.
[16gL 16ff_	.
16g`JJ] 16ff]	.
[16BLL	.
16BJ]	.
[16gL	.
16gJJ]	.
[16BLL [16gg	.
16BJ] 16gg_	.
[16gL 16gg_	.
16gJJ] 16gg]	.
!!pagebreak:original
=98	=98
[16cLL [16ee 16ff	.
16cJ] 16ee_	.
[16gL 16ee_	.
16g`JJ] 16ee]	.
[16cLL [16ee	.
16cJ] 16ee_	.
[16gL 16ee_	.
16g`JJ] 16ee]	.
[16eLL	.
16eJ]	.
[16gL	.
16gJJ]	.
[16eLL [16gg	.
16eJ] 16gg]	.
[16gL [16ee	.
16gJJ] 16ee]	.
=99	=99
[16fLL [16a [16cc#X	.
16fJ_ 16a_ 16cc#]	.
16fL_ 16a_ [16dd	.
16fJJ_ 16a_ 16dd]	.
16fLL_ 16a_ [16ff	.
16fJ_ 16a_ 16ff]	.
16fL_ 16a_ [16ee	.
16fJJ_ 16a_ 16ee]	.
16fLL_ 16a_ [16cc#X	.
16fJ_ 16a_ 16cc#]	.
16fL_ 16a_ [16dd	.
16fJJ_ 16a_ 16dd]	.
16fLL_ 16a_ [16ff	.
16fJ_ 16a_ 16ff]	.
16fL_ 16a_ [16ee	.
16fJJ] 16a] 16ee]	.
=100	=100
[16cc#XLL	.
16cc#J]	.
[16ddL	.
16ddJJ]	.
[16FLL [16A [16d [16ff	.
16FJ_ 16A_ 16d_ 16ff]	.
16FL_ 16A_ 16d_ [16aa	.
16FJJ] 16A] 16d] 16aa]	.
[16GLL [16cn [16e [16gg	.
16GJ_ 16c_ 16e_ 16gg]	.
16GL_ 16c_ 16e_ [16ee	.
16GJJ] 16c] 16e] 16ee]	.
[16GLL [16B [16d [16ff	.
16GJ_ 16B_ 16d_ 16ff]	.
16GL_ 16B_ 16d_ [16dd	.
16GJJ] 16B] 16d] 16dd]	.
!!linebreak:original
=101	=101
[16CCLL [16C 16c 16e-X 16g [16cc	f
16CCJ_ 16C_ 16cc_	.
16CCL_ 16C_ 16cc_	.
16CCJJ_ 16C_ 16cc_	.
16CCLL_ 16C_ 16cc_	.
16CCJ_ 16C_ 16cc_	.
16CCL_ 16C_ 16cc_	.
16CCJJ] 16C] 16cc]	.
[16GGLL [16g	.
16GGJ_ 16g_	.
16GGL_ 16g_	.
16GGJJ_ 16g_	.
16GGLL_ 16g_	.
16GGJ_ 16g_	.
16GGL_ 16g_	.
16GGJJ] 16g]	.
!!linebreak:original
=102	=102
[16E-XLL [16ee-X	.
16E-J_ 16ee-_	.
16E-L_ 16ee-_	.
16E-JJ_ 16ee-_	.
16E-LL_ 16ee-_	.
16E-J] 16ee-]	.
16FL 16ff	.
16DJJ 16dd	.
[16CLL [16cc	.
16CJ_ 16cc_	.
16CL_ 16cc_	.
16CJJ] 16cc]	.
4r	.
=103	=103
[16e-XLL 16ff#X [16gg	p
16e-J] 16gg_	.
[16gL 16gg_	.
16g`JJ] 16gg]	.
[16e-XLL [16gg	.
16e-J] 16gg_	.
[16gL 16gg_	.
16g`JJ] 16gg]	.
[16cLL	.
16cJ]	.
[16gL [16cc	.
16gJJ] 16cc]	.
[16cLL [16ccc	.
16cJ] 16ccc]	.
[16gL [16aa-X	.
16gJJ] 16aa-]	.
=104	=104
[16dLL [16gg	.
16dJ] 16gg]	.
[16gL [16ff#X	.
16gJJ] 16ff#]	.
[16dLL [16ffn	.
16dJ] 16ff_	.
[16gL 16ff_	.
16gJJ] 16ff]	.
[16BLL	.
16BJ]	.
[16gL [16ff	.
16gJJ] 16ff]	.
[16BLL [16aa-X	.
16BJ] 16aa-]	.
[16gL [16gg	.
16gJJ] 16gg]	.
!!linebreak:original
=105	=105
[16B-XLL [16d-X [16ff	f
16B-J] 16d-] 16ff]	.
[16gL [16ee	.
16gJJ] 16ee]	.
[16B-XLL [16d-X [16ddd-X	p
16B-J] 16d-] 16ddd-_	.
[16gL 16ddd-_	.
16gJJ] 16ddd-_	.
[16B-XLL [16d-X 16ddd-_	.
16B-J] 16d-] 16ddd-_	.
[16gL 16ddd-_	.
16gJJ] 16ddd-]	.
[16B-XLL [16d-X [16ee	.
16B-J] 16d-] 16ee_	.
[16gL 16ee_	.
16gJJ] 16ee]	.
!!pagebreak:original
=106	=106
[16A-XLL [16c [16gg	.
16A-J] 16c] 16gg_	.
[16eL 16gg_	.
16eJJ] 16gg]	.
[16A-XLL [16c [16ff	.
16A-J] 16c] 16ff_	.
[16fL 16ff_	.
16fJJ] 16ff]	.
[16A-XLL [16c	.
16A-J] 16c]	.
[16fL [16ff	.
16fJJ] 16ff]	.
[16A-XLL [16c [16ccc	.
16A-J] 16c] 16ccc]	.
[16fL [16aa-X	.
16fJJ] 16aa-]	.
=107	=107
[16cLL [16e-X [16gg	f
16cJ] 16e-] 16gg]	.
[16aL [16ff#X	.
16aJJ] 16ff#]	.
[16cLL [16e-X [16eee-X	p
16cJ] 16e-] 16eee-_	.
[16aL 16eee-_	.
16aJJ] 16eee-_	.
[16cLL [16e-X 16eee-_	.
16cJ] 16e-] 16eee-_	.
[16aL 16eee-_	.
16aJJ] 16eee-]	.
[16cLL [16e-X [16ff#X	.
16cJ] 16e-] 16ff#_	.
[16aL 16ff#_	.
16aJJ] 16ff#]	.
=108	=108
[16BLL [16d [16aa	.
16BJ_ 16d_ 16aa]	.
16BL_ 16d_ [16gg	.
16BJJ] 16d] 16gg]	.
[16ff#XLL	pp
16ff#J]	.
[16ggL	.
16ggJJ]	.
[16ff#XLL	.
16ff#J]	.
[16ggL	.
16ggJJ]	.
[16ff#XLL	.
16ff#J]	.
[16ggL	.
16ggJJ]	.
!!linebreak:original
=109	=109
[16ff#XLL	.
16ff#J]	.
!LO:TX:b:i:t=cresc.	!
[16gL [16gg	.
16gJJ] 16gg]	.
[16f#XLL [16ff#X	.
16f#J] 16ff#]	.
[16gL [16gg	.
16gJJ] 16gg]	.
[16g#XLL [16gg#X	.
16g#J] 16gg#]	.
[16aL [16aa	.
16aJJ] 16aa]	.
[16b-XLL [16bb-X	.
16b-J] 16bb-]	.
[16bnL [16bbn	.
16bJJ] 16bb]	.
=110	=110
[16ALL [16cc [16ccc	f
16AJ] 16cc] 16ccc]	.
[16cL [16cc [16ccc	.
16cJJ] 16cc] 16ccc]	.
[16ALL [16cc [16ccc	.
16AJ] 16cc_ 16ccc_	.
[16cL 16cc_ 16ccc_	.
16cJJ] 16cc_ 16ccc_	.
[16FLL 16cc_ 16ccc_	.
16FJ] 16cc_ 16ccc_	.
[16cL 16cc_ 16ccc_	.
16cJJ] 16cc] 16ccc]	.
[16FLL [16bb	p
16FJ] 16bb]	.
[16cL [16aa	.
16cJJ] 16aa]	.
=111	=111
[16ELL [16cc [16gg	.
16EJ] 16cc] 16gg]	.
[16cL [16cc [16gg	.
16cJJ] 16cc] 16gg]	.
[16ELL [16cc [16gg	.
16EJ] 16cc_ 16gg_	.
[16cL 16cc_ 16gg_	.
16cJJ] 16cc_ 16gg_	.
[16CLL 16cc_ 16gg_	.
16CJ] 16cc_ 16gg_	.
[16cL 16cc_ 16gg_	.
16cJJ] 16cc] 16gg]	.
[16CLL [16ff	.
16CJ] 16ff]	.
[16cL [16ee	.
16cJJ] 16ee_	.
!!linebreak:original
=112	=112
[16FLL 16ee]	.
16FJ] 16dd	.
[16AL 16ff	.
16AJJ] 16ee	.
[16FLL [16ff 16gg	.
16FJ] 16ff]	.
[16dL 16ee	.
16dJJ] 16dd	.
[16GLL [16cc	.
16GJ] 16cc_	.
[16eL 16cc_	.
16eJJ] 16cc]	.
[16GTLL [16b	.
16GTJ] 16b_	.
[16dTL 16b_	.
16dTJJ] 16b]	.
!!linebreak:original
=113	=113
[16ALL [16cc [16ccc	.
16AJ] 16cc] 16ccc]	.
[16cL [16cc [16ccc	.
16cJJ] 16cc] 16ccc]	.
[16ALL [16cc [16ccc	.
16AJ] 16cc_ 16ccc_	.
[16cL 16cc_ 16ccc_	.
16cJJ] 16cc_ 16ccc_	.
[16FLL 16cc_ 16ccc_	.
16FJ] 16cc] 16ccc]	.
[16cL 16ddd	.
16cJJ] 16ccc	.
[16FLL [16bb	.
16FJ] 16bb]	.
[16cL [16aa	.
16cJJ] 16aa]	.
=114	=114
[16ELL [16cc [16gg	.
16EJ] 16cc] 16gg]	.
[16cL [16cc [16gg	.
16cJJ] 16cc] 16gg]	.
[16ELL [16cc [16gg	.
16EJ] 16cc_ 16gg_	.
[16cL 16cc_ 16gg_	.
16cJJ] 16cc_ 16gg_	.
[16CLL 16cc_ 16gg_	.
16CJ] 16cc] 16gg]	.
[16cL 16aa	.
16cJJ] 16gg	.
[16CLL [16ff	.
16CJ] 16ff]	.
[16cL [16ee	.
16cJJ] 16ee_	.
=115	=115
[16FLL 16ee]	.
16FJ] 16dd	.
[16cL 16aa	.
16cJJ] 16gg#X	.
[16FLL [16aa 16bb	.
16FJ] 16aa]	.
[16dL 16ggn	.
16dJJ] 16ff	.
[16GLL [16ee	.
16GJ] 16ee_	.
[16cL 16ee_	.
16cJJ] 16ee]	.
[16GTLL [16dd	.
16GTJ] 16dd_	.
[16BtL 16dd_	.
16BtJJ] 16dd]	.
!!pagebreak:original
=116	=116
[16cLL [16e [16cc	.
16cJ] 16e] 16cc_	.
[16cL [16e 16cc_	.
16cJJ] 16e] 16cc]	.
[16cLL [16e	.
16cJ] 16e]	.
[16cL [16e 16cc 16dd	.
16cJJ] 16e] 16b	.
[16cLL [16e [16cc	.
16c`J] 16e] 16cc]	.
[16cL [16e [16dd#X	.
16c`JJ] 16e] 16dd#]	.
[16cLL [16e [16ee	.
16c`J] 16e] 16ee]	.
[16cL [16e [16ff#X	.
16c`JJ] 16e] 16ff#]	.
=117	=117
[16cLL [16e [16gg	.
16c`J] 16e] 16gg]	.
[16cL [16e [16bb	.
16c`JJ] 16e] 16bb]	.
[16cLL [16e [16ccc	.
16c`J] 16e] 16ccc]	.
[16cL [16e [16ddd#X	.
16c`JJ] 16e] 16ddd#]	.
[16cLL [16e [16eee	.
16cJ] 16e] 16eee_	.
[16cL [16e 16eee_	.
16cJJ] 16e] 16eee]	.
[16cLL [16e	.
16cJ] 16e]	.
[16cL [16e	.
16cJJ] 16e]	.
=118	=118
[16BLL [16d [16dd [16gg [16ddd	.
16BJ] 16d] 16dd_ 16gg_ 16ddd_	.
[16BL [16d 16dd_ 16gg_ 16ddd_	.
16BJJ] 16d] 16dd] 16gg] 16ddd]	.
[16BLL [16d	.
16BJ] 16d]	.
[16BL [16d 16b 16cc	.
16BJJ] 16d] 16a	.
[16BLL [16d [16b	.
16B`J] 16d] 16b]	.
[16BL [16d [16cc#X	.
16B`JJ] 16d] 16cc#]	.
[16BLL [16d [16dd	.
16B`J] 16d] 16dd]	.
[16BL [16d [16ff#X	.
16B`JJ] 16d] 16ff#]	.
!!linebreak:original
=119	=119
[16BLL [16d [16gg	.
16B`J] 16d] 16gg]	.
[16BL [16d [16aa#X	.
16B`JJ] 16d] 16aa#]	.
[16BLL [16d [16bb	.
16B`J] 16d] 16bb]	.
[16BL [16d [16ccc#X	.
16B`JJ] 16d] 16ccc#]	.
[16BLL [16d [16ddd	.
16BJ] 16d] 16ddd_	.
[16BL [16d 16ddd_	.
16BJJ] 16d] 16ddd]	.
[16BLL [16d	.
16BJ] 16d]	.
[16BL [16d	.
16BJJ] 16d]	.
=120	=120
[16F#XLL [16A [16d [16cc [16ff#X [16aa [16ccc	.
16F#J] 16A] 16d] 16cc_ 16ff#_ 16aa_ 16ccc_	.
[16F#XL [16A [16d 16cc_ 16ff#_ 16aa_ 16ccc_	.
16F#JJ] 16A] 16d] 16cc] 16ff#] 16aa] 16ccc]	.
[16F#XLL [16A [16d	.
16F#J] 16A] 16d]	.
[16F#XL [16A [16d 16a 16b	.
16F#JJ] 16A] 16d] 16g#X	.
[16F#XLL [16A [16d [16a	.
16F#`J] 16A] 16d] 16a]	.
[16F#XL [16A [16d [16b	.
16F#`JJ] 16A] 16d] 16b]	.
[16F#XLL [16A [16d [16cc	.
16F#`J] 16A] 16d] 16cc]	.
[16F#XL [16A [16d [16ee#X	.
16F#`JJ] 16A] 16d] 16ee#]	.
=121	=121
[16F#XLL [16A [16d [16ff#X	.
16F#`J] 16A] 16d] 16ff#]	.
[16F#XL [16A [16d [16gg#X	.
16F#`JJ] 16A] 16d] 16gg#]	.
[16F#XLL [16A [16d [16aa	.
16F#`J] 16A] 16d] 16aa]	.
[16F#XL [16A [16d [16bb	.
16F#`JJ] 16A] 16d] 16bb]	.
[16F#XLL [16A [16d [16ccc	.
16F#J] 16A] 16d] 16ccc_	.
[16F#XL [16A [16d 16ccc_	.
16F#JJ] 16A] 16d] 16ccc]	.
[16F#XLL [16A [16d	.
16F#J] 16A] 16d]	.
[16F#XL [16A [16d	.
16F#JJ] 16A] 16d]	.
!!linebreak:original
=122	=122
[16GLL [16d 16bb	.
16GJ_ 16d_ 16aa	.
16GL_ 16d_ 16ccc	.
16GJJ_ 16d_ 16bb	.
16GLL_ 16d_ [16ddd	.
16GJ_ 16d_ 16ddd]	.
16GL_ 16d_ [16ff#X	.
16GJJ] 16d] 16ff#]	.
[16GLL [16B 16gg	.
16GJ_ 16B_ 16ff#X	.
16GL_ 16B_ 16aa	.
16GJJ_ 16B_ 16gg	.
16GLL_ 16B_ [16bb	.
16GJ_ 16B_ 16bb]	.
16GL_ 16B_ [16dd	.
16GJJ] 16B] 16dd]	.
=123	=123
[16GLL [16c 16ee	.
16GJ_ 16c_ 16dd#X	.
16GL_ 16c_ 16ff#X	.
16GJJ_ 16c_ 16ee	.
16GLL_ 16c_ [16gg	.
16GJ_ 16c_ 16gg]	.
16GL_ 16c_ [16b	.
16GJJ] 16c] 16b]	.
[16GLL [16f#X 16cc	.
16GJ_ 16f#_ 16b	.
16GL_ 16f#_ 16ddn	.
16GJJ_ 16f#_ 16cc	.
16GLL_ 16f#_ [16ee	.
16GJ_ 16f#_ 16ee]	.
16GL_ 16f#_ [16a	.
16GJJ] 16f#] 16a]	.
=124	=124
16BLL 16b	.
16AJ 16a	.
16cL 16cc	.
16BJJ 16b	.
[16dLL [16dd	.
16dJ] 16dd]	.
[16F#XL [16f#X	.
16F#JJ] 16f#]	.
16GLL 16g	.
16F#XJ 16f#X	.
16AL 16a	.
16GJJ 16g	.
[16BLL [16b	.
16BJ] 16b]	.
[16DL [16d	.
16DJJ] 16d]	.
!!linebreak:original
=125	=125
[16ELL [16e	.
16EJ_ 16e_	.
16EL] 16e]	.
16DJJ 16d	.
[16CLL [16c	.
16CJ_ 16c_	.
16CL] 16c]	.
16BBJJ 16B	.
[16CLL [16c	.
16CJ_ 16c_	.
16CL] 16c]	.
16AAJJ 16A	.
[16GGLL [16G	.
16GGJ_ 16G_	.
16GGL] 16G]	.
16FF#XJJ 16F#X	.
=126	=126
[16GGLL [16G	.
16GGJ] 16G]	.
16BBL 16B	.
16DJJ 16d	.
[16GLL [16g	.
16GJ] 16g]	.
[16GL [16g	.
16GJJ] 16g]	.
[16GLL [16g	.
16GJ_ 16g_	.
16GL_ 16g_	.
16GJJ] 16g]	.
4r	.
=127	=127
[16ff#XLL	p
16ff#J]	.
[16ggL	.
16ggJJ]	.
[16ff#XLL	.
16ff#J]	.
[16ggL	.
16ggJJ]	.
[16ff#XLL	.
16ff#J]	.
[16ggL	.
16ggJJ]	.
[16ff#XLL	.
16ff#J]	.
[16ggL	.
16ggJJ]	.
!!pagebreak:original
=128	=128
!LO:TX:b:i:t=cresc.	!
[16ffLL	.
16ffJ]	.
[16ggL	.
16ggJJ]	.
[16eeLL	.
16eeJ]	.
[16ggL	.
16ggJJ]	.
[16ffLL	f
16ffJ]	.
[16ggL	.
16ggJJ]	.
[16ddLL	.
16ddJ]	.
[16ggL	.
16ggJJ]	.
!!linebreak:original
=129	=129
[16eLL [16cc	p
16e`J] 16cc]	.
[16fL [16gg	.
16f`JJ] 16gg]	.
[16gLL [16cc	.
16g`J] 16cc]	.
[16eL [16gg	.
16e`JJ] 16gg]	.
[16cLL [16ee	.
16cJ_ 16ee]	.
16cL_ [16gg	.
16cJJ_ 16gg]	.
16cLL_ [16ee	.
16cJ_ 16ee]	.
16cL_ [16gg	.
16cJJ] 16gg]	.
=130	=130
[16dLL [16ff	.
16d`J] 16ff]	.
[16eL [16gg	.
16e`JJ] 16gg]	.
[16fLL [16ff	.
16f`J] 16ff]	.
[16dL [16gg	.
16d`JJ] 16gg]	.
[16BLL [16dd	.
16BJ_ 16dd]	.
16BL_ [16gg	.
16BJJ_ 16gg]	.
16BLL_ [16dd	.
16BJ_ 16dd]	.
16BL_ [16gg	.
16BJJ] 16gg]	.
=131	=131
[16dLL [16ee	.
16dJ] 16ee]	.
16cL [16gg	.
16ggJJ]	.
[16fLL [16cc	.
16fJ] 16cc]	.
16eL [16gg	.
16ggJJ]	.
16c#XLL [16b	.
[16dJ 16b]	.
16dL] [16gg	.
16ggJJ]	.
[16ddLL	.
16ddJ]	.
[16ggL	.
16ggJJ]	.
!!linebreak:original
=132	=132
16fLL [16cc	.
[16eJ 16cc]	.
16eL] [16aa	.
16aaJJ]	.
[16gLL [16cc	.
16gJ] 16cc]	.
16f#XL [16aa	.
16aaJJ]	.
16aLL [16b	.
[16gJ 16b]	.
16gL] [16dd	.
16ddJJ]	.
[16ff#XLL	.
16ff#J]	.
[16ggL	.
16ggJJ]	.
=133	=133
[16CLL [16ee	.
16C`J] 16ee]	.
[16GL [16ff	.
16G`JJ] 16ff]	.
[16CLL [16gg	.
16C`J] 16gg]	.
[16GL [16ee	.
16G`JJ] 16ee]	.
[16ELL [16cc	.
16EJ] 16cc_	.
[16GL 16cc_	.
16GJJ] 16cc_	.
[16ELL 16cc_	.
16EJ] 16cc_	.
[16GL 16cc_	.
16GJJ] 16cc]	.
=134	=134
[16FLL [16dd	.
16F`J] 16dd]	.
[16GL [16ee	.
16G`JJ] 16ee]	.
[16FLL [16ff	.
16F`J] 16ff]	.
[16GL [16dd	.
16G`JJ] 16dd]	.
[16DLL [16bb	.
16DJ] 16bb_	.
[16GL 16bb_	.
16GJJ] 16bb_	.
[16DLL 16bb_	.
16DJ] 16bb_	.
[16GL 16bb_	.
16GJJ] 16bb]	.
!!linebreak:original
=135	=135
[16ELL 16ccc	.
16EJ] [16bb	.
[16GL 16bb_	.
16GJJ] 16bb]	.
[16CLL 16aa	.
16CJ] [16gg	.
[16GL 16gg_	.
16GJJ] 16gg]	.
[16DLL 16ee	.
16DJ] [16ff	.
[16GL 16ff_	.
16GJJ] 16ff]	.
[16BBLL	.
16BBJ]	.
[16GL	.
16GJJ]	.
=136	=136
[16CLL 16ff	.
16CJ] [16ee	.
[16GL 16ee_	.
16GJJ] 16ee]	.
[16AALL 16dd	.
16AAJ] [16cc	.
[16F#XL 16cc_	.
16F#JJ] 16cc]	.
[16GGLL 16aa	.
16GGJ] [16gg	.
[16GL 16gg_	.
16G`JJ] 16gg]	.
[16FFnLL	.
16FF`J]	.
[16FnL	.
16F`JJ]	.
=137	=137
16EE`LL [16g [16gg	f
16CJ 16g_ 16gg_	.
16BBL 16g_ 16gg_	.
16CJJ 16g_ 16gg_	.
16DLL 16g_ 16gg_	.
16CJ 16g_ 16gg_	.
16BBL 16g_ 16gg_	.
16CJJ 16g] 16gg]	.
[16EELL [16ff	.
16EE`J_ 16ff]	.
16EEL_ [16ee	.
16EE`JJ] 16ee]	.
[16ddLL	.
16dd`J]	.
[16ccL	.
16cc`JJ]	.
!!pagebreak:original
=138	=138
16FFLL [16a [16aa	.
16CJ 16a_ 16aa_	.
16BBL 16a_ 16aa_	.
16CJJ 16a_ 16aa_	.
16DLL 16a_ 16aa_	.
16CJ 16a_ 16aa_	.
16BBL 16a_ 16aa_	.
16CJJ 16a] 16aa]	.
[16FFLL [16gg	.
16FF`J_ 16gg]	.
16FFL_ [16ff	.
16FF`JJ] 16ff]	.
[16eeLL	.
16ee`J]	.
[16ddL	.
16dd`JJ]	.
=139	=139
[16GGLL 16ee	.
16GGJ] 16ff	.
[16CL 16gg	.
16CJJ] 16ee	.
[16ELL [16cc	.
16EJ] 16cc]	.
[16CL	.
16CJJ]	.
[16GGLL 16dd	.
16GGJ] 16ee	.
[16DL 16ff	.
16DJJ] 16dd	.
[16FLL [16b	.
16FJ] 16b]	.
[16DL	.
16DJJ]	.
=140	=140
16ELL [16g [16gg	.
16cJ 16g_ 16gg_	.
16BL 16g_ 16gg_	.
16cJJ 16g_ 16gg_	.
16dLL 16g_ 16gg_	.
16cJ 16g_ 16gg_	.
16BL 16g_ 16gg_	.
16cJJ 16g] 16gg]	.
[16ELL 16ff	.
16EJ_ 16gg	.
16EL_ 16ff	.
16EJJ] 16ee	.
16ddLL	.
16eeJ	.
16ddL	.
16ccJJ	.
!!linebreak:original
=141	=141
16ALL [16cc [16ccc	.
16fJ 16cc_ 16ccc_	.
16eL 16cc_ 16ccc_	.
16fJJ 16cc_ 16ccc_	.
16gLL 16cc_ 16ccc_	.
16fJ 16cc_ 16ccc_	.
16eL 16cc_ 16ccc_	.
16fJJ 16cc] 16ccc]	.
[16ALL 16bb	.
16AJ_ 16ccc	.
16AL_ 16bb	.
16AJJ] 16aa	.
16ggLL	.
16aaJ	.
16ggL	.
16ffJJ	.
=142	=142
[16GLL [16ee	p
16GJ] 16ee]	.
[16cL [16cc	.
16cJJ] 16cc]	.
[16ALL [16ff	f
16AJ] 16ff_	.
[16cL 16ff_	.
16cJJ] 16ff]	.
[16GLL [16ee	p
16GJ] 16ee]	.
[16cL [16cc	.
16cJJ] 16cc]	.
[16FLL [16aa	f
16FJ] 16aa_	.
[16cL 16aa_	.
16cJJ] 16aa]	.
=143	=143
[16ELL [16gg	p
16EJ] 16gg]	.
[16cL [16cc	.
16cJJ] 16cc]	.
[16ALL [16ff	f
16AJ] 16ff_	.
[16cL 16ff_	.
16cJJ] 16ff]	.
[16GLL [16ee	p
16GJ] 16ee]	.
[16cL [16cc	.
16cJJ] 16cc]	.
[16FLL [16aa	f
16FJ] 16aa_	.
[16cL 16aa_	.
16cJJ] 16aa]	.
!!linebreak:original
=144	=144
[16ELL [16G [16c#X [16b-X [16bb-X	f
16EJ] 16G] 16c#] 16b-_ 16bb-_	.
[16EL [16G [16c#X 16b-_ 16bb-_	.
16EJJ] 16G] 16c#] 16b-_ 16bb-_	.
[16ELL [16G [16c#X 16b-_ 16bb-_	.
16EJ] 16G] 16c#] 16b-_ 16bb-_	.
[16EL [16G [16c#X 16b-_ 16bb-_	.
16EJJ] 16G] 16c#] 16b-] 16bb-]	.
[16ELL [16G [16c#X [16b-X [16bb-X	.
16EJ] 16G] 16c#] 16b-_ 16bb-_	.
[16EL [16G [16c#X 16b-_ 16bb-_	.
16EJJ] 16G] 16c#] 16b-] 16bb-]	.
[16ELL [16G [16c#X [16b-X [16bb-X	.
16EJ] 16G] 16c#] 16b-_ 16bb-_	.
[16EL [16G [16c#X 16b-_ 16bb-_	.
16EJJ] 16G] 16c#] 16b-] 16bb-]	.
=145	=145
[16FLL [16A [16d [16a [16aa	.
16FJ_ 16A_ 16d_ 16a] 16aa]	.
16FL_ 16A_ 16d_ [16gg	.
16FJJ] 16A] 16d] 16gg]	.
[16ffTLL	.
16ffTJ]	.
[16eeL	.
16eeJJ]	.
[16ddTLL	.
16ddTJ]	.
[16ccL	.
16ccJJ]	.
[16btLL	.
16btJ]	.
[16aL	.
16aJJ]	.
=146	=146
16GLL [16g	.
16eJ 16g]	.
16cL 16a	.
16eJJ 16b	.
16GLL 16cc	.
16eJ 16dd	.
16cL 16ee	.
16eJJ 16ff	.
16GLL 16ff#X	.
16eJ 16gg	.
16cL 16aa	.
16eJJ 16gg	.
16GLL [16ee 16ffn	.
16eJ 16ee]	.
16cL 16dd	.
16eJJ 16cc	.
!!linebreak:original
=147	=147
16GTLL [16dd	.
16fTJ 16dd_	.
16BtL 16dd_	.
16fTJJ 16dd_	.
16GTLL 16dd_	.
16fTJ 16dd_	.
16BtL 16dd_	.
16fTJJ 16dd_	.
16GTLL 16dd_	.
16fTJ 16dd_	.
16BtL 16dd_	.
16fTJJ 16dd_	.
16GTLL 16dd_	.
16fTJ 16dd_	.
16BtL 16dd_	.
16fTJJ 16dd]	.
=148	=148
[16cLL [16e [16cc	.
16cJ_ 16e_ 16cc_	.
16cL_ 16e_ 16cc_	.
16cJJ] 16e] 16cc]	.
[16ccLL	.
16ccJ_	.
16ccL_ [16ee	p
16cc`JJ] 16ee]	.
[16ddLL [16gg	.
16ddJ_ 16gg]	.
16ddL_ [16ff	.
16dd`JJ] 16ff]	.
[16bLL	.
16bJ_	.
16bL_ [16dd	.
16b`JJ] 16dd]	.
=149	=149
[16ccLL [16ff	.
16ccJ_ 16ff]	.
16ccL_ [16ee	.
16cc`JJ] 16ee]	.
[16aLL	.
16aJ_	.
16aL_ [16cc	.
16a`JJ] 16cc]	.
[16fLL [16ee	.
16fJ_ 16ee]	.
16fL_ [16dd	.
16f`JJ] 16dd]	.
[16gLL	.
16gJ_	.
16gL_ [16b	.
16g`JJ] 16b]	.
!!pagebreak:original
=150	=150
[16eLL [16dd	.
16eJ_ 16dd]	.
16eL_ [16cc	.
16eJJ] 16cc]	.
[16C#XLL [16c#X 16ee	f
16C#J_ 16c#_ 16ff	.
16C#L_ 16c#_ 16gg	.
16C#JJ] 16c#] 16ee	.
[16DLL [16d 16ff	.
16DJ_ 16d_ 16gg	.
16DL_ 16d_ 16aa	.
16DJJ] 16d] 16ff	.
[16BBLL [16B 16dd	.
16BBJ_ 16B_ 16ee	.
16BBL_ 16B_ 16ff	.
16BBJJ] 16B] 16dd	.
=151	=151
[16CLL [16c 16ee	.
16CJ_ 16c_ 16ff	.
16CL_ 16c_ 16gg	.
16CJJ] 16c] 16ee	.
[16AALL [16A 16cc	.
16AAJ_ 16A_ 16dd	.
16AAL_ 16A_ 16ee	.
16AAJJ] 16A] 16cc	.
[16FFLL [16F 16dd	.
16FFJ_ 16F_ 16ee	.
16FFL_ 16F_ 16ff	.
16FFJJ] 16F] 16dd	.
[16GGLL [16G 16b	.
16GGJ_ 16G_ 16cc	.
16GGL_ 16G_ 16dd	.
16GGJJ] 16G] 16b	.
=152	=152
[16CCLL [16C 16c 16e 16g [16cc	.
16CCJ_ 16C_ 16cc_	.
16CCL_ 16C_ 16cc_	.
16CCJJ_ 16C_ 16cc_	.
16CCLL_ 16C_ 16cc_	.
16CCJ_ 16C_ 16cc_	.
16CCL_ 16C_ 16cc_	.
16CCJJ] 16C] 16cc]	.
[16GGLL [16g	.
16GGJ_ 16g_	.
16GGL_ 16g_	.
16GGJJ_ 16g_	.
16GGLL_ 16g_	.
16GGJ_ 16g_	.
16GGL_ 16g_	.
16GGJJ] 16g]	.
!!linebreak:original
=153	=153
[16ELL [16ee	.
16EJ_ 16ee_	.
16EL_ 16ee_	.
16EJJ_ 16ee_	.
16ELL_ 16ee_	.
16EJ] 16ee]	.
16FL 16ff	.
16DJJ 16dd	.
[16CLL [16cc	.
16CJ_ 16cc_	.
16CL_ 16cc_	.
16CJJ] 16cc]	.
[16GGLL [16G 16dd	.
16GGJ_ 16G_ 16ff	.
16GGL_ 16G_ 16gg	.
16GGJJ] 16G] 16bb	.
=154	=154
[16CLL [16c 16cc	.
16CJ_ 16c_ 16ee	.
16CL_ 16c_ 16gg	.
16CJJ] 16c] 16ccc	.
[16GGLL [16G 16dd	.
16GGJ_ 16G_ 16ff	.
16GGL_ 16G_ 16gg	.
16GGJJ] 16G] 16bb	.
[16CLL [16c 16cc	.
16CJ_ 16c_ 16ee	.
16CL_ 16c_ 16gg	.
16CJJ] 16c] 16ccc	.
[16GGLL [16G 16dd	.
16GGJ_ 16G_ 16ff	.
16GGL_ 16G_ 16gg	.
16GGJJ] 16G] 16bb	.
=155	=155
[16CLL [16c [16ee [16ccc	.
16CJ_ 16c_ 16ee_ 16ccc_	.
16CL_ 16c_ 16ee_ 16ccc_	.
16CJJ] 16c] 16ee] 16ccc]	.
[16CCLL [16C [16e [16g [16cc	.
16CCJ_ 16C_ 16e_ 16g_ 16cc_	.
16CCL_ 16C_ 16e_ 16g_ 16cc_	.
16CCJJ] 16C] 16e] 16g] 16cc]	.
[16CCLL [16C [16e [16g [16cc	.
16CCJ_ 16C_ 16e_ 16g_ 16cc_	.
16CCL_ 16C_ 16e_ 16g_ 16cc_	.
16CCJJ] 16C] 16e] 16g] 16cc]	.
4r	.
=	=
*-	*-
